X: 35
T:White Hall. HA.036
M:C
Q:140
S:Henry Atkinson's original MS,Hartburn,N'umberland,1694.
O:England
A:Hartburn,Northumberland
N:See Playford eds 5(1675) and all subsequent..CGP
H:1/4
Z:vmp.Chris Partington.Jan.2004
K:F
C|F>GA B>cd|e>fg a>ba|g3 c3|!
B>cB A>BA|G>AG E>DC|F3A2||!
A|B>cd Ggf|e>dc g>a (g/f/)|e3 c3|!
B>cB A>BA|G>AG E>DC|F3 A3|]
